X:1
T:The Black Sheep
M:4/4
L:1/4
K:F
 A c B A| G F E D| C B E D| C3 z| A G A B| c A F E| D G G A| G2 z C|\
 A c B A| D A G F| E B E D| C2 z C| F F G F| c A F D| C A A G| F3 z|\
